assets/Giraffe/Flat/giraffe_flat.svg

<svg width="32" height="32" viewBox="0 0 32 32" fill="none" xmlns="http://www.w3.org/2000/svg">
<path d="M6 2.90283V4.37998H7V2.90283C7 2.62283 6.78 2.40283 6.5 2.40283C6.23 2.40283 6 2.62283 6 2.90283Z" fill="#FF822D"/>
<path d="M25.27 22.27L26.54 23.54C26.83 23.83 27 24.23 27 24.64V29.74C27 29.88 26.89 29.99 26.75 29.99H25.25C25.11 30 25 29.89 25 29.75V26.35C25 26.15 24.91 25.97 24.75 25.85L21 23V19.53H25V21.61C25 21.86 25.1 22.1 25.27 22.27Z" fill="#FF822D"/>
<path d="M16.75 30H15.25C15.11 30 15 29.89 15 29.75V25.58C15 25.44 14.95 25.3 14.86 25.18L12.23 21.98L13.78 20.71L16.65 24.21C16.87 24.49 17 24.84 17 25.2V29.75C17 29.89 16.89 30 16.75 30Z" fill="#FF822D"/>
<path d="M7.99998 2.875V4H6.58998C5.64998 4 4.83998 4.64 4.61998 5.54C4.54998 5.81 4.29998 6 4.02998 6H3.99998L3.26672 7.00288L3.99998 8H5.44617L7.85999 18.85C8.18 20.32 9.30999 21.5 10.76 21.87C10.9 21.91 11 22.03 11 22.17V24.41C11 24.53 10.98 24.65 10.93 24.76L8.92999 29.65C8.86999 29.82 8.98999 30 9.15999 30H10.8C10.9 30 10.99 29.94 11.03 29.84L12.82 25.45C12.94 25.15 13 24.83 13 24.51V22.31C13 22.14 13.14 22 13.31 22H19.69C19.86 22 20 22.14 20 22.31V25.7C20 25.89 19.95 26.09 19.87 26.26L18.18 29.63C18.1 29.8 18.22 30 18.4 30H19.75C19.91 30 20.06 29.93 20.15 29.8L22.5 26.67C22.82 26.24 23 25.71 23 25.17V22.38C23 22.17 23.17 22 23.38 22C24.28 22 25 21.27 25 20.38V17.75L24.9999 17.7295L26.66 19.54C27.52 20.43 28 21.59 28 22.83V24H29.01V22.83C29.01 21.33 28.43 19.91 27.38 18.84L24.07 15.26L24.0636 15.2716C23.3763 14.492 22.3702 14 21.25 14H11.91C11.32 14 10.82 13.59 10.69 13.02L9.01999 5.5H9.49998C10.16 5.5 10.73 5.07 10.92 4.47C11 4.24 10.83 4 10.58 4H8.99998V2.875C8.99998 2.595 8.76998 2.375 8.49998 2.375C8.21998 2.375 7.99998 2.595 7.99998 2.875Z" fill="#FFB02E"/>
<path d="M6 2.5C6 2.22 6.23 2 6.5 2C6.78 2 7 2.22 7 2.5V3H6V2.5Z" fill="#636363"/>
<path d="M8 2.5C8 2.22 8.22 2 8.5 2C8.77 2 9 2.22 9 2.5V3H8V2.5Z" fill="#636363"/>
<path d="M6.5 6.94C6.22 6.94 6 6.72 6 6.44V6.06C6 5.78 6.22 5.56 6.5 5.56C6.78 5.56 7 5.78 7 6.06V6.44C7 6.72 6.77 6.94 6.5 6.94Z" fill="#1C1C1C"/>
<path d="M4 6C3.45 6 3 6.45 3 7C3 7.55 3.45 8 4 8V6Z" fill="#D3883E"/>
<path d="M7.83999 8.34002C8.06643 8.34002 8.24999 8.15646 8.24999 7.93002C8.24999 7.70358 8.06643 7.52002 7.83999 7.52002C7.61356 7.52002 7.42999 7.70358 7.42999 7.93002C7.42999 8.15646 7.61356 8.34002 7.83999 8.34002Z" fill="#D3883E"/>
<path d="M6.85003 10.9L6.49003 9.3C6.46003 9.15 6.58003 9 6.74003 9H7.28003C7.41003 9 7.53003 9.11 7.52003 9.25V10.88C7.52003 10.94 7.47003 11 7.40003 11H6.97003C6.91003 11 6.86003 10.96 6.85003 10.9Z" fill="#D3883E"/>
<path d="M8.99 9.2L9.77 12.72C9.8 12.88 9.69 13.02 9.53 13.02H8.25C8.11 13.02 8 12.91 8 12.77V9.25C8 9.11 8.11 9 8.25 9H8.75C8.87 9 8.97 9.08 8.99 9.2Z" fill="#D3883E"/>
<path d="M17 15.25V17.75C17 17.89 17.11 18 17.25 18H19.75C19.89 18 20 17.89 20 17.75V17.1C20 17.03 19.97 16.97 19.93 16.92L18.08 15.07C18.03 15.03 17.96 15 17.9 15H17.25C17.11 15 17 15.11 17 15.25Z" fill="#D3883E"/>
<path d="M19.6 15H21.75C21.89 15 22 15.11 22 15.25V17.4C22 17.62 21.73 17.73 21.57 17.58L19.42 15.43C19.27 15.27 19.38 15 19.6 15Z" fill="#D3883E"/>
<path d="M17.25 18.67H21.75C21.89 18.67 22 18.78 22.01 18.93V19.88C22.01 20.02 21.9 20.13 21.76 20.13H20.03C20 20.13 19.98 20.13 19.95 20.14L17.33 21.02C17.17 21.07 17 20.95 17 20.78V18.92C17 18.78 17.11 18.67 17.25 18.67Z" fill="#D3883E"/>
<path d="M9.38001 18.91C9.45001 19.18 9.70001 19.38 9.99001 19.38H13.82C13.93 19.38 14.01 19.29 14.01 19.19V17.21C14.01 17.08 13.95 16.95 13.86 16.86L13.15 16.15C13.06 16.05 12.93 16 12.8 16H10.53C10.45 16 10.38 15.95 10.35 15.89L10.08 15.2C10.03 15.08 9.92001 15 9.79001 15H8.74001C8.62001 15 8.53001 15.11 8.56001 15.24C8.63803 15.5521 8.78501 16.228 8.93949 16.9384C9.10179 17.6847 9.27243 18.4694 9.38001 18.91Z" fill="#D3883E"/>
<path d="M14.07 16.07L14.92 16.92C14.97 16.97 15.04 17 15.1 17H16.18C16.32 17 16.43 16.89 16.43 16.75V15.25C16.43 15.11 16.32 15 16.18 15H14.24C14.11 15 14 15.11 14 15.25V15.9C14 15.96 14.03 16.03 14.07 16.07Z" fill="#D3883E"/>
<path d="M11.91 14H13V15.1C13 15.24 12.89 15.35 12.75 15.35H11.25C11.11 15.35 11 15.24 11 15.1V13.6C11.23 13.85 11.56 14 11.91 14Z" fill="#D3883E"/>
<path d="M16.19 20.99H15.25C15.11 20.99 15 20.88 15 20.74V18.25C15 18.11 15.11 18 15.25 18H16.19C16.33 18 16.44 18.11 16.44 18.25V20.74C16.44 20.88 16.33 20.99 16.19 20.99Z" fill="#D3883E"/>
<path d="M9.81 14.49H8.19C8.09 14.49 8 14.41 8 14.3V13.73C8 13.63 8.08 13.54 8.19 13.54H9.81C9.91 13.54 10 13.62 10 13.73V14.3C10 14.41 9.92 14.49 9.81 14.49Z" fill="#D3883E"/>
<path d="M13.82 20H10.46C10.29 20 10.2 20.2 10.32 20.33L10.89 20.89C10.96 20.96 11.05 21 11.15 21H13.82C13.93 21 14.01 20.91 14.01 20.81V20.19C14.01 20.08 13.92 20 13.82 20Z" fill="#D3883E"/>
<path d="M22.71 18.59V19.86C22.71 20 22.82 20.11 22.96 20.11H23.75C23.89 20.11 24 20 24 19.86V19.21C24 19.13 23.96 19.06 23.9 19.01L23.11 18.39C22.95 18.26 22.71 18.38 22.71 18.59Z" fill="#D3883E"/>
<path d="M21.6 22.4C22.0087 22.4 22.34 22.0687 22.34 21.66C22.34 21.2513 22.0087 20.92 21.6 20.92C21.1913 20.92 20.86 21.2513 20.86 21.66C20.86 22.0687 21.1913 22.4 21.6 22.4Z" fill="#D3883E"/>
<path d="M23.56 17.19C23.56 17.4054 23.3854 17.58 23.17 17.58C22.9546 17.58 22.78 17.4054 22.78 17.19C22.78 16.9746 22.9546 16.8 23.17 16.8C23.3854 16.8 23.56 16.9746 23.56 17.19Z" fill="#D3883E"/>
<path d="M27.93 26.01H28.14C28.82 26.01 29.37 25.46 29.37 24.78V24.45C29.37 23.94 28.96 23.53 28.45 23.53C27.94 23.53 27.53 23.94 27.53 24.45V25.61C27.53 25.83 27.71 26.01 27.93 26.01Z" fill="#D3883E"/>
</svg>

<svg xmlns="http://www.w3.org/2000/svg" width="32" height="32" fill="none"><path fill="#FF822D" d="M6 2.903V4.38h1V2.903c0-.28-.22-.5-.5-.5-.27 0-.5.22-.5.5ZM25.27 22.27l1.27 1.27c.29.29.46.69.46 1.1v5.1c0 .14-.11.25-.25.25h-1.5c-.14.01-.25-.1-.25-.24v-3.4c0-.2-.09-.38-.25-.5L21 23v-3.47h4v2.08c0 .25.1.49.27.66ZM16.75 30h-1.5c-.14 0-.25-.11-.25-.25v-4.17a.67.67 0 0 0-.14-.4l-2.63-3.2 1.55-1.27 2.87 3.5c.22.28.35.63.35.99v4.55c0 .14-.11.25-.25.25Z"/><path fill="#FFB02E" d="M8 2.875V4H6.59c-.94 0-1.75.64-1.97 1.54-.07.27-.32.46-.59.46H4l-.733 1.003L4 8h1.446L7.86 18.85a4.001 4.001 0 0 0 2.9 3.02c.14.04.24.16.24.3v2.24c0 .12-.02.24-.07.35l-2 4.89c-.06.17.06.35.23.35h1.64c.1 0 .19-.06.23-.16l1.79-4.39c.12-.3.18-.62.18-.94v-2.2c0-.17.14-.31.31-.31h6.38c.17 0 .31.14.31.31v3.39c0 .19-.05.39-.13.56l-1.69 3.37c-.08.17.04.37.22.37h1.35c.16 0 .31-.07.4-.2l2.35-3.13c.32-.43.5-.96.5-1.5v-2.79c0-.21.17-.38.38-.38.9 0 1.62-.73 1.62-1.62v-2.65l1.66 1.81c.86.89 1.34 2.05 1.34 3.29V24h1.01v-1.17c0-1.5-.58-2.92-1.63-3.99l-3.31-3.58-.006.012A3.741 3.741 0 0 0 21.25 14h-9.34c-.59 0-1.09-.41-1.22-.98L9.02 5.5h.48c.66 0 1.23-.43 1.42-1.03a.354.354 0 0 0-.34-.47H9V2.875c0-.28-.23-.5-.5-.5-.28 0-.5.22-.5.5Z"/><path fill="#636363" d="M6 2.5c0-.28.23-.5.5-.5.28 0 .5.22.5.5V3H6v-.5ZM8 2.5c0-.28.22-.5.5-.5.27 0 .5.22.5.5V3H8v-.5Z"/><path fill="#1C1C1C" d="M6.5 6.94c-.28 0-.5-.22-.5-.5v-.38c0-.28.22-.5.5-.5s.5.22.5.5v.38c0 .28-.23.5-.5.5Z"/><path fill="#D3883E" d="M4 6c-.55 0-1 .45-1 1s.45 1 1 1V6ZM7.84 8.34a.41.41 0 1 0 0-.82.41.41 0 0 0 0 .82ZM6.85 10.9l-.36-1.6c-.03-.15.09-.3.25-.3h.54c.13 0 .25.11.24.25v1.63c0 .06-.05.12-.12.12h-.43c-.06 0-.11-.04-.12-.1ZM8.99 9.2l.78 3.52c.03.16-.08.3-.24.3H8.25c-.14 0-.25-.11-.25-.25V9.25c0-.14.11-.25.25-.25h.5c.12 0 .22.08.24.2ZM17 15.25v2.5c0 .14.11.25.25.25h2.5c.14 0 .25-.11.25-.25v-.65c0-.07-.03-.13-.07-.18l-1.85-1.85a.312.312 0 0 0-.18-.07h-.65c-.14 0-.25.11-.25.25ZM19.6 15h2.15c.14 0 .25.11.25.25v2.15c0 .22-.27.33-.43.18l-2.15-2.15c-.15-.16-.04-.43.18-.43ZM17.25 18.67h4.5c.14 0 .25.11.26.26v.95c0 .14-.11.25-.25.25h-1.73c-.03 0-.05 0-.08.01l-2.62.88a.255.255 0 0 1-.33-.24v-1.86c0-.14.11-.25.25-.25ZM9.38 18.91c.07.27.32.47.61.47h3.83c.11 0 .19-.09.19-.19v-1.98a.51.51 0 0 0-.15-.35l-.71-.71a.47.47 0 0 0-.35-.15h-2.27c-.08 0-.15-.05-.18-.11l-.27-.69a.314.314 0 0 0-.29-.2H8.74c-.12 0-.21.11-.18.24.078.312.225.988.38 1.698.162.747.332 1.531.44 1.972ZM14.07 16.07l.85.85c.05.05.12.08.18.08h1.08c.14 0 .25-.11.25-.25v-1.5c0-.14-.11-.25-.25-.25h-1.94c-.13 0-.24.11-.24.25v.65c0 .06.03.13.07.17ZM11.91 14H13v1.1c0 .14-.11.25-.25.25h-1.5c-.14 0-.25-.11-.25-.25v-1.5c.23.25.56.4.91.4ZM16.19 20.99h-.94c-.14 0-.25-.11-.25-.25v-2.49c0-.14.11-.25.25-.25h.94c.14 0 .25.11.25.25v2.49c0 .14-.11.25-.25.25ZM9.81 14.49H8.19A.19.19 0 0 1 8 14.3v-.57c0-.1.08-.19.19-.19h1.62c.1 0 .19.08.19.19v.57c0 .11-.08.19-.19.19ZM13.82 20h-3.36c-.17 0-.26.2-.14.33l.57.56c.07.07.16.11.26.11h2.67c.11 0 .19-.09.19-.19v-.62a.19.19 0 0 0-.19-.19ZM22.71 18.59v1.27c0 .14.11.25.25.25h.79c.14 0 .25-.11.25-.25v-.65c0-.08-.04-.15-.1-.2l-.79-.62c-.16-.13-.4-.01-.4.2ZM21.6 22.4a.74.74 0 1 0 0-1.48.74.74 0 0 0 0 1.48ZM23.56 17.19a.39.39 0 1 1-.78 0 .39.39 0 0 1 .78 0ZM27.93 26.01h.21c.68 0 1.23-.55 1.23-1.23v-.33c0-.51-.41-.92-.92-.92s-.92.41-.92.92v1.16c0 .22.18.4.4.4Z"/></svg>
